resources/svg/indent-decrease.svg

<svg xmlns="http://www.w3.org/2000/svg" viewBox="0 0 24 24" fill="currentColor">
    <g>
        <path fill="none" d="M0 0h24v24H0z"/>
        <path d="M3 4h18v2H3V4zm0 15h18v2H3v-2zm8-5h10v2H11v-2zm0-5h10v2H11V9zm-8 3.5L7 9v7l-4-3.5z"/>
    </g>
</svg>

<svg fill="currentColor" viewBox="0 0 24 24" xmlns="http://www.w3.org/2000/svg"><path d="M3 4H21V6H3V4ZM3 19H21V21H3V19ZM11 14H21V16H11V14ZM11 9H21V11H11V9ZM3 12.5L7 9V16L3 12.5Z"/></svg>
